src/assets/images/toolbox/mysql.svg

<svg
  width="33"
  height="32"
  viewBox="0 0 33 32"
  fill="transparent"
  xmlns="http://www.w3.org/2000/svg">
  <path
    fill="#00546B"
    d="M30.3964 24.7498C28.601 24.7056 27.2094 24.883 26.0423 25.3707C25.7056 25.5036 25.1669 25.5038 25.122 25.9251C25.3015 26.1025 25.324 26.3907 25.4811 26.6345C25.7507 27.0779 26.2217 27.6766 26.6482 27.9871C27.1195 28.3418 27.591 28.6964 28.0846 29.0069C28.96 29.5391 29.9476 29.8494 30.8005 30.3815C31.2944 30.6917 31.7879 31.0911 32.2817 31.4236C32.5286 31.6007 32.6856 31.8893 33 32V31.9336C32.8427 31.7339 32.7979 31.4458 32.6409 31.224C32.4166 31.0023 32.1919 30.8027 31.9675 30.581C31.3166 29.7164 30.5087 28.9625 29.6334 28.3418C28.9152 27.854 27.3439 27.1889 27.0523 26.3684C27.0523 26.3684 27.0297 26.3464 27.0074 26.3242C27.5011 26.2798 28.0846 26.1025 28.5561 25.9694C29.3191 25.7697 30.0148 25.8142 30.8005 25.6146C31.1595 25.5259 31.5186 25.4151 31.8777 25.3042V25.1047C31.4739 24.7056 31.1821 24.1736 30.7556 23.7966C29.6109 22.8208 28.3539 21.8676 27.0523 21.0694C26.3564 20.626 25.4585 20.3377 24.7179 19.9609C24.4488 19.8277 23.9998 19.7613 23.8428 19.5396C23.4386 19.0519 23.2141 18.4089 22.9225 17.8324C22.2718 16.6128 21.6431 15.2605 21.0819 13.9746C20.6782 13.1098 20.4313 12.2451 19.9374 11.447C17.6257 7.67783 15.1119 5.39415 11.2516 3.1547C10.421 2.68917 9.43351 2.4896 8.37865 2.24582C7.81774 2.22352 7.25644 2.17929 6.6954 2.15699C6.33625 2.00177 5.97711 1.58059 5.66285 1.38103C4.38377 0.58276 1.08423 -1.14644 0.141599 1.13724C-0.464462 2.5783 1.03947 3.99719 1.55549 4.72906C1.93734 5.23894 2.43091 5.81533 2.70027 6.39186C2.8574 6.76857 2.90216 7.16795 3.05929 7.56696C3.41856 8.54224 3.75501 9.6289 4.22652 10.538C4.47343 11.0036 4.74266 11.4913 5.05692 11.9126C5.23649 12.1564 5.55062 12.2674 5.61809 12.6664C5.30396 13.1098 5.28138 13.7751 5.10168 14.3293C4.29373 16.8347 4.60811 19.9387 5.75264 21.7789C6.11166 22.333 6.96463 23.5528 8.10929 23.087C9.11939 22.688 8.89492 21.4242 9.18647 20.3157C9.25407 20.0493 9.20918 19.8722 9.34373 19.6948V19.7393C9.65798 20.3599 9.97211 20.9587 10.2639 21.5795C10.9598 22.6657 12.1716 23.7966 13.1816 24.5505C13.7205 24.9494 14.1468 25.6368 14.8202 25.8807V25.8141H14.7752C14.6405 25.6145 14.4385 25.5259 14.259 25.3706C13.8551 24.9717 13.4061 24.4839 13.0919 24.0404C12.1494 22.7986 11.3188 21.4241 10.5782 20.0051C10.2191 19.318 9.90477 18.564 9.61309 17.8768C9.47828 17.6104 9.47828 17.2115 9.25394 17.0786C8.91724 17.5663 8.42354 17.9876 8.17663 18.5862C7.7504 19.5396 7.70537 20.7147 7.54825 21.934C7.45846 21.9564 7.50322 21.934 7.45833 21.9786C6.74029 21.8009 6.49338 21.0694 6.22389 20.4486C5.55049 18.8745 5.43825 16.3469 6.022 14.5289C6.17913 14.0632 6.85253 12.6 6.58317 12.1565C6.44849 11.7352 5.99942 11.4913 5.75264 11.1588C5.46096 10.7375 5.14658 10.2055 4.94468 9.73977C4.40596 8.49814 4.1366 7.12348 3.55312 5.88186C3.28375 5.30533 2.81263 4.70689 2.43091 4.17471C2.00455 3.57613 1.53317 3.1547 1.19647 2.44526C1.08436 2.20147 0.927106 1.80234 1.10668 1.53625C1.15157 1.35885 1.24123 1.29246 1.42093 1.24811C1.71274 1.00407 2.54327 1.31451 2.83482 1.44755C3.66535 1.77991 4.36107 2.0906 5.05692 2.55613C5.37104 2.77787 5.70774 3.19917 6.11166 3.31005H6.58304C7.30133 3.46514 8.10916 3.35439 8.78256 3.55383C9.97223 3.93066 11.0494 4.48502 12.0146 5.08372C14.9549 6.92391 17.3786 9.5402 19.0172 12.6664C19.2866 13.1761 19.3987 13.642 19.6456 14.1739C20.1171 15.2605 20.7006 16.3691 21.1717 17.4333C21.6431 18.4752 22.0919 19.5396 22.7653 20.4044C23.102 20.8698 24.4486 21.1138 25.0546 21.3577C25.5036 21.5572 26.1994 21.7347 26.6033 21.9785C27.3664 22.4439 28.1294 22.9763 28.8477 23.486C29.2069 23.7521 30.329 24.3065 30.3964 24.7498Z"
  />
  <path
    fill="#00546B"
    d="M7.50309 5.4826C7.12163 5.4826 6.8524 5.5272 6.58304 5.59359V5.63794H6.62793C6.80763 5.99273 7.12163 6.23664 7.34597 6.54695C7.52567 6.90161 7.68267 7.25652 7.86237 7.61131C7.88469 7.58901 7.90714 7.56696 7.90714 7.56696C8.22152 7.34509 8.37852 6.99043 8.37852 6.45826C8.24384 6.30316 8.22139 6.14795 8.10916 5.99273C7.9746 5.77086 7.68267 5.66012 7.50309 5.4826Z"
  />
</svg>

<svg xmlns="http://www.w3.org/2000/svg" width="33" height="32" fill="#00546b" xmlns:v="https://vecta.io/nano">
  <path
    d="M30.396 24.75c-1.795-.044-3.187.133-4.354.621-.337.133-.875.133-.92.554.18.177.202.466.359.709.27.443.741 1.042 1.167 1.353l1.436 1.02c.875.532 1.863.842 2.716 1.375.494.31.987.71 1.481 1.042.247.177.404.466.718.576v-.066c-.157-.2-.202-.488-.359-.71l-.673-.643c-.651-.865-1.459-1.619-2.334-2.239-.718-.488-2.29-1.153-2.581-1.973l-.045-.044c.494-.044 1.077-.222 1.549-.355.763-.2 1.459-.155 2.244-.355l1.077-.31v-.2c-.404-.399-.696-.931-1.122-1.308-1.145-.976-2.402-1.929-3.703-2.727-.696-.443-1.594-.732-2.334-1.109-.269-.133-.718-.2-.875-.421-.404-.488-.629-1.131-.92-1.707l-1.841-3.858c-.404-.865-.651-1.729-1.145-2.528-2.312-3.769-4.825-6.053-8.686-8.292-.831-.466-1.818-.665-2.873-.909l-1.683-.089c-.359-.155-.718-.576-1.033-.776C4.384.583 1.084-1.146.142 1.137c-.606 1.441.898 2.86 1.414 3.592.382.51.875 1.086 1.145 1.663.157.377.202.776.359 1.175.359.975.696 2.062 1.167 2.971.247.466.516.953.83 1.375.18.244.494.355.561.754-.314.443-.337 1.109-.516 1.663-.808 2.505-.494 5.609.651 7.45.359.554 1.212 1.774 2.357 1.308 1.01-.399.786-1.663 1.077-2.771.068-.266.023-.444.157-.621v.044l.92 1.84c.696 1.086 1.908 2.217 2.918 2.971.539.399.965 1.086 1.639 1.33v-.067h-.045c-.135-.2-.337-.288-.516-.444-.404-.399-.853-.887-1.167-1.33-.943-1.242-1.773-2.616-2.514-4.035-.359-.687-.673-1.441-.965-2.128-.135-.266-.135-.665-.359-.798-.337.488-.83.909-1.077 1.508-.426.953-.471 2.128-.628 3.348-.09.022-.045 0-.09.045-.718-.178-.965-.909-1.234-1.53-.673-1.574-.786-4.102-.202-5.92.157-.466.831-1.929.561-2.372-.135-.421-.584-.665-.831-.998-.292-.421-.606-.953-.808-1.419-.539-1.242-.808-2.616-1.392-3.858-.269-.577-.74-1.175-1.122-1.707-.426-.599-.898-1.02-1.234-1.729-.112-.244-.269-.643-.09-.909.045-.177.135-.244.314-.288.292-.244 1.122.066 1.414.199.831.332 1.526.643 2.222 1.109.314.222.651.643 1.055.754h.471c.718.155 1.526.044 2.2.244 1.19.377 2.267.931 3.232 1.53a19.76 19.76 0 0 1 7.003 7.583c.269.51.382.976.628 1.508.471 1.087 1.055 2.195 1.526 3.259.471 1.042.92 2.106 1.594 2.971.337.465 1.683.709 2.289.953.449.2 1.145.377 1.549.621.763.465 1.526.998 2.244 1.508.359.266 1.481.82 1.549 1.264zM7.503 5.483a3.6 3.6 0 0 0-.92.111v.044h.045c.18.355.494.599.718.909l.516 1.064.045-.044c.314-.222.471-.577.471-1.109-.135-.155-.157-.31-.269-.466-.135-.222-.426-.333-.606-.51z" />
</svg>
